packages/ui-icons/svg/Solid/text-superscript.svg

<svg viewBox="0 0 1920 1920" version="1.1" xmlns="http://www.w3.org/2000/svg">
    <path d="M1094.33497,415.47137 L1094.33497,689.055113 L683.959359,689.055113 L683.959359,1920.18196 L410.375615,1920.18196 L410.375615,689.055113 L0,689.055113 L0,415.47137 L1094.33497,415.47137 Z M1607.30449,5 C1733.28981,5 1849.83648,82.4241994 1897.57685,197.466164 C1945.454,312.781712 1915.63337,440.134944 1817.96398,537.804341 C1769.95003,585.818288 1713.1814,639.167118 1659.01182,688.959359 L1659.01182,688.959359 L1915.0862,688.959359 L1915.0862,962.543102 L1367.91872,962.543102 C1292.27281,962.543102 1231.12685,901.397136 1231.12685,825.751231 L1231.12685,825.751231 L1231.12685,765.973183 C1231.12685,726.30354 1248.36262,688.685775 1278.18325,662.69532 C1278.32688,662.561263 1279.50207,661.531713 1281.60889,659.687511 L1283.64055,657.909145 C1317.84371,627.96861 1504.66545,464.255455 1624.54027,344.380634 C1634.52608,334.394827 1650.39393,315.654341 1644.78547,302.111946 C1640.13454,290.75822 1624.54027,278.583744 1607.30449,278.583744 C1557.23867,278.583744 1497.59741,334.531619 1476.80505,361.61641 L1476.80505,361.61641 L1258.48522,196.645412 C1273.25874,176.947383 1407.86194,5 1607.30449,5 Z" stroke="none" stroke-width="1" fill-rule="evenodd"/>
</svg>

<svg viewBox="0 0 1920 1920" xmlns="http://www.w3.org/2000/svg">
    <path d="M1094.335 415.471v273.584H683.959v1231.127H410.376V689.055H0V415.471h1094.335ZM1607.305 5c125.985 0 242.531 77.424 290.272 192.466 47.877 115.316 18.056 242.669-79.613 340.338-48.014 48.014-104.783 101.363-158.952 151.155h256.074v273.584H1367.92c-75.646 0-136.792-61.146-136.792-136.792v-59.778c0-39.67 17.236-77.287 47.056-103.278.144-.134 1.32-1.163 3.426-3.007l2.032-1.779c34.203-29.94 221.024-193.654 340.9-313.528 9.985-9.986 25.853-28.727 20.244-42.27-4.65-11.353-20.245-23.527-37.48-23.527-50.066 0-109.708 55.948-130.5 83.032l-218.32-164.97C1273.26 176.946 1407.862 5 1607.305 5Z" fill-rule="evenodd"/>
</svg>
